X:032
T:Blodam Drain
T:The Flowers Of the Thorn
S:Dick Rutter, Edinburgh
Z:Nigel Gatherer
M:3/4
L:1/8
K:Am
E2|A4 B2|c2 B2 A2|e2 dcBA|B4 B2|A2 AcBd|c2 B2 A2|^G2 GBAc|B4:|
B2|c4 c2|d4 d2|e2 e2 f2|e4 d2|cBcd c2|dcde d2|efefef|g3 fed|
cBcdec|dcdefd|e2 e2 a2|^g4 a2|a2 e2 c2|f2 e2 d2|c2 dcBc|A4|]
<end>
<start>
